!!!!SEGMENT: Fsc2008-Angelus_ad_pastores.krn
!!!id: Fsc2008
!!!AGN: Motet
!!!SCT: Seay (1979)
!!!voices: 4
!!!COM: Costanzo Festa
!!!OTL: Angelus ad pastores
**kern	**kern	**kern	**kern
*part4	*part3	*part2	*part1
*staff4	*staff3	*staff2	*staff1
*I"Bassus	*I"Tenor	*I"Altus	*I"Superius
*I'B	*I'T	*I'A	*I'S
*clefF4	*clefGv2	*clefGv2	*clefG2
*k[]	*k[]	*k[]	*k[]
*C:	*C:	*C:	*C:
*M2/1	*M2/1	*M2/1	*M2/1
*met(C|)	*met(C|)	*met(C|)	*met(C|)
!!section: Prima pars: Angelus ad pastores
!!!OMD: Prima pars: Angelus ad pastores
=1	=1	=1	=1
0GG	0r	0r	0r
=2	=2	=2	=2
1GG	0D	0r	0r
1D	.	.	.
=3	=3	=3	=3
1D	1D	0r	0r
2r	1A	.	.
[2D	.	.	.
=4	=4	=4	=4
2D]	1A	0r	0r
2D	.	.	.
1D	2r	.	.
.	[2A	.	.
=5	=5	=5	=5
2C	2A]	0r	0r
2.D	2A	.	.
.	1A	.	.
4C	.	.	.
2D	.	.	.
=6	=6	=6	=6
2E	1G	0r	0r
2C	.	.	.
1F	1A	.	.
=7	=7	=7	=7
2.E	2B	0G	0r
.	2G	.	.
4D	.	.	.
2C	1c	.	.
4BB	.	.	.
4AA	.	.	.
=8	=8	=8	=8
1GG	2B	1G	0d
.	1G	.	.
1G	.	1d	.
.	4F	.	.
.	4E	.	.
=9	=9	=9	=9
2F	2.D	1d	1d
2.D	.	.	.
.	4E	.	.
.	2F	2r	1a
4E	.	.	.
[2F	[2D	[2d	.
=10	=10	=10	=10
4F]	4D]	2d]	1a
4E	4E	.	.
4D	1F	2d	.
4C	.	.	.
1D	.	1d	2r
.	4E	.	[2a
.	4D	.	.
=11	=11	=11	=11
1AA	1E	1c	2a]
.	.	.	2a
*	*^	*	*
1F	1D	1D	1d	1a
*	*v	*v	*	*
=12	=12	=12	=12
1E	0r	2e	1g
.	.	2c	.
1D	.	1f	1a
=13	=13	=13	=13
1r	1r	2.e	2b
.	.	.	2g
.	.	4d	.
2r	1A	4c	1cc
.	.	4B	.
2AA	.	2A	.
=14	=14	=14	=14
2BB	2D	2d	2b
2C	2E	2c	1a
2D	2F	1B	.
2E	2G	.	2g
=15	=15	=15	=15
1.F	4D	1.A	0a
.	4E	.	.
.	4F	.	.
.	4G	.	.
.	4A	.	.
.	4D	.	.
4E	2d	4G	.
4D	.	4F	.
=16	=16	=16	=16
2E	2c	2G	0r
2.D	2.B	2.F	.
4C	4A	4E	.
4BB	[2A	4D	.
4AA	.	4C	.
=17	=17	=17	=17
1BB	2A]	1D	2r
.	2G	.	2g
1AA	1A	1E	1cc
=18	=18	=18	=18
2r	1r	0r	2b
2D	.	.	2a
1G	2r	.	1b
.	2G	.	.
=19	=19	=19	=19
2F	1c	1r	2a
2E	.	.	2r
1F	2B	1D	1r
.	2A	.	.
=20	=20	=20	=20
1E	1B	1G	1g
1r	1A	2F	1cc
.	.	2E	.
=21	=21	=21	=21
1D	1r	1F	2b
.	.	.	2a
1G	1G	1E	1b
=22	=22	=22	=22
2F	1c	2r	2a
2E	.	2.c	1e
1F	2A	.	.
.	.	4B	.
.	2A	[2A	2d
=23	=23	=23	=23
1E	1B	2A]	1e
.	.	2G	.
1r	1A	[1c	[1e
=24	=24	=24	=24
1.AA	1r	0c_	1e]
.	[1E	.	1r
2BB	.	.	.
=25	=25	=25	=25
2C	2E]	1c]	0r
2D	2F	.	.
2E	2G	1r	.
2F	2A	.	.
=26	=26	=26	=26
1G	2B	0r	1r
.	2c	.	.
1D	1d	.	[1d
=27	=27	=27	=27
1.F	1D	1r	2d]
.	.	.	2e
.	2.A	[1D	2f
2E	.	.	2g
.	4G	.	.
=28	=28	=28	=28
2D	2F	2D]	2a
2C	2E	2E	2a
1BB	1D	2F	2b
.	.	2G	2dd
=29	=29	=29	=29
1AA	1E	2.A	2cc
.	.	.	4b
.	.	4B	4a
1r	2r	1c	2g
.	2A	.	[2a
=30	=30	=30	=30
0r	2D	1d	2a]
.	1G	.	2.b
.	.	2A	.
.	.	.	4a
.	2A	2c	[2a
=31	=31	=31	=31
1r	1E	1B	2a]
.	.	.	2g#i
1AA	1A	2A	1a
.	.	2E	.
=32	=32	=32	=32
2FF	1r	2F	1r
2GG	.	2D	.
1AA	1A	1C	1e
=33	=33	=33	=33
1r	2F	1r	2f
.	2G	.	2d
1AA	1A	1E	1c
=34	=34	=34	=34
2FF	1r	2F	1r
2GG	.	2D	.
1AA	1A	1C	1e
=35	=35	=35	=35
1r	2F	1r	2f
.	2G	.	2d
1AA	1A	1E	1c
=36	=36	=36	=36
2FF	1r	2F	1r
2GG	.	2D	.
2AA	1E	2C	2r
2C	.	[2G	2e
=37	=37	=37	=37
2C	2C	4G]	2g
.	.	4A	.
2BB	2D	2B	2g
2AA	2E	2c	2a
4r	2G	2d	2b
4GG	.	.	.
=38	=38	=38	=38
2C	2G	2e	2cc
2D	2F	2A	2.a
2AA	1E	1c	.
.	.	.	8gL
.	.	.	8fJ
[2C	.	.	[2e
=39	=39	=39	=39
2C]	2G	4c	4e]
.	.	4B	4d
2D	2F	4A	1d
.	.	4G	.
1AA	1E	2.A	.
.	.	.	2c#i
.	.	4G	.
=40	=40	=40	=40
1D	[0D	2A	[0d
.	.	1B	.
1r	.	.	.
.	.	4A	.
.	.	4G	.
=41	=41	=41	=41
1GG	1D]	1B	0d]
[1D	1r	[1A	.
=42	=42	=42	=42
2D]	1D	1A]	0r
2D	.	.	.
2C	[1A	1r	.
2C	.	.	.
=43	=43	=43	=43
1F	2A]	0r	0r
.	2A	.	.
1E	2G	.	.
.	2G	.	.
=44	=44	=44	=44
2r	1c	0r	0r
1A	.	.	.
.	1B	.	.
2G	.	.	.
=45	=45	=45	=45
2F	2r	1r	0r
4E	2d	.	.
4D	.	.	.
2.E	2c	1G	.
.	[2B	.	.
4C	.	.	.
=46	=46	=46	=46
4D	4B]	1.d	1r
4C	4A	.	.
4BB	1A	.	.
4AA	.	.	.
1BB	.	.	1d
.	2G#i	2d	.
=47	=47	=47	=47
1AA	1A	2c	1.a
.	.	2c	.
1r	1D	1f	.
.	.	.	2a
=48	=48	=48	=48
0r	0r	2e	2g
.	.	1c	2g
.	.	.	1cc
.	.	4B	.
.	.	4A	.
=49	=49	=49	=49
0r	0r	4G	2b
.	.	4A	.
.	.	4B	2dd
.	.	4G	.
.	.	2A	2cc
.	.	[2d	[2b
=50	=50	=50	=50
2r	0r	4d]	4b]
.	.	4c	4a
1D	.	4B	1a
.	.	4A	.
.	.	1B	.
2E	.	.	2g#i
=51	=51	=51	=51
1F	2r	1A	1a
.	1A	.	.
1D	.	2r	1r
.	2B	2d	.
=52	=52	=52	=52
1AA	1c	1e	1r
2.D	1A	1f	[1a
4C	.	.	.
=53	=53	=53	=53
2D	2r	1d	2a]
2BB	2D	.	2b
1AA	[1A	1e	1cc
=54	=54	=54	=54
0r	2A]	2c	2a
.	2G	2.d	1b
.	2A	.	.
.	.	4c	.
.	2F	2A	2a
=55	=55	=55	=55
1r	1E	1B	2a
.	.	.	2g
1D	1r	2A	2a
.	.	2A	[2dd
=56	=56	=56	=56
2D	1r	2F	2dd]
2E	.	2G	2.cc
1F	1A	1A	.
.	.	.	4b
.	.	.	4a
.	.	.	4g
=57	=57	=57	=57
1D	2A	2r	2f
.	2B	2d	4e
.	.	.	4d
1AA	1c	2e	1a
.	.	2e	.
=58	=58	=58	=58
0D	1A	1f	2r
.	.	.	2a
.	1F	1d	2a
.	.	.	2b
=59	=59	=59	=59
1C	2.G	1e	1cc
.	4F	.	.
1r	4D	1f	1a
.	4E	.	.
.	4F	.	.
.	4G	.	.
=60	=60	=60	=60
1AA	2A	2e	2.cc
.	2E	1c	.
.	.	.	4b
[1D	[1F	.	4a
.	.	.	4g
.	.	4B	[2f
.	.	4A	.
=61	=61	=61	=61
1D]	1F]	1B	2f]
.	.	.	4e
.	.	.	4d
[1C	[1G	[1c	[1e
=62	=62	=62	=62
1C]	1G]	1c]	0e_
1r	[1C	2r	.
.	.	[2G	.
=63	=63	=63	=63
2.C	1C]	4G]	1e]
.	.	4G	.
.	.	2G	.
4C	.	.	.
2C	1r	2G	1r
2C	.	2A	.
=64	=64	=64	=64
2D	0r	2A	0r
2D	.	1B	.
1E	.	.	.
.	.	2G	.
=65	=65	=65	=65
2C	1r	2.c	2.c
1F	.	.	.
.	.	4B	4c
.	2.F	4A	2c
.	.	4G	.
2E	.	[2c	2c
.	4F	.	.
=66	=66	=66	=66
2D	2F	2c]	2d
2D	2F	2B	2d
1C	2G	1c	1e
.	2G	.	.
=67	=67	=67	=67
0r	1A	2.F	2c
.	.	.	1f
.	.	4E	.
.	2F	2D	.
.	[2c	2C	2e
=68	=68	=68	=68
1GG	2c]	1G	2d
.	2B	.	2d
2AA	2A	1r	1c
[2C	2A	.	.
=69	=69	=69	=69
2C]	1G	2r	0r
2BB	.	2D	.
2C	1r	2E	.
2E	.	[2G	.
=70	=70	=70	=70
1D	0r	2G]	1d
.	.	2F	.
2C	.	2G	2e
2GG	.	2B-i	[2g
=71	=71	=71	=71
1D	2r	1A	2g]
.	2D	.	2f#i
1r	2E	1G	2g
.	[2G	.	2b
=72	=72	=72	=72
2r	2G]	0r	1a
2D	2F	.	.
2E	2G	.	1g
2C	2G	.	.
=73	=73	=73	=73
1F	1A	2r	0r
.	.	2A	.
1E	2G	2B	.
.	2E	2G	.
=74	=74	=74	=74
0r	2A	1c	2r
.	2A	.	2c
.	1G	1B	2d
.	.	.	2d
=75	=75	=75	=75
2r	1D	1d	1f
2D	.	.	.
2E	1r	2B	2e
2C	.	[2c	[2e
=76	=76	=76	=76
1F	2r	2c]	4e]
.	.	.	8dL
.	.	.	8cJ
.	2A	4B	2d
.	.	4A	.
1E	2B	4G	[1e
.	.	4F	.
.	2G	4E	.
.	.	4D	.
=77	=77	=77	=77
1r	1c	1C	1e]
[1E	1B	1r	[1g
=78	=78	=78	=78
1E]	1B	1e	1g]
[1D	[1d	[1f	[1a
=79	=79	=79	=79
1D]	1d]	1f]	1a]
[1E	2.B	[1e	[1g
.	4A	.	.
=80	=80	=80	=80
1E]	2B	1e]	1g]
.	2.c	.	.
[1F	.	1r	2.f
.	4B	.	.
.	4A	.	.
.	4G	.	4e
=81	=81	=81	=81
1F]	2A	1A	2c
.	2D	.	1d
[1E	[1G	1B	.
.	.	.	4c#i
.	.	.	4B
=82	=82	=82	=82
1E]	1G]	1G	1c#i
1D	1F	1A	1d
=83	=83	=83	=83
1r	1r	1.D	1.a
[1A	[1D	.	.
.	.	2E	2g
=	=	=	=
*M3/1	*M3/1	*M3/1	*M3/1
*met(C|3)	*met(C|3)	*met(C|3)	*met(C|3)
2A]	2D]	2F	2f
2G	2E	2G	2e
2F	2F	2A	2d
2E	2G	4B	2e
.	.	4c	.
1D	1A	1d	1f
=84	=84	=84	=84
0AA	0A	0c	0e
1r	1E	1r	1r
=85	=85	=85	=85
1AA	1.A	1c	1e
1.D	.	1.d	1.f
.	2A	.	.
.	1A	.	.
2D	.	2d	2f
=86	=86	=86	=86
1D	1B	1d	1f
1E	0G	1B	1g
1C	.	1e	1e
=87	=87	=87	=87
1D	1F	1d	1f
0F	0A	0c	0f
=88	=88	=88	=88
1C	1G	1c	1e
0D	0F	0A	0d
=	=	=	=
*M2/1	*M2/1	*M2/1	*M2/1
*met(C|)	*met(C|)	*met(C|)	*met(C|)
1AA	1.E	1A	1c
1r	.	1r	1r
.	4D	.	.
.	4C	.	.
=89	=89	=89	=89
1.E	1C	2r	1.c
.	.	1G	.
.	1r	.	.
2F	.	2A	2d
=90	=90	=90	=90
2G	0r	2B	2e
2A	.	2c	2.f
1E	.	1B	.
.	.	.	4e
.	.	.	[2e
=91	=91	=91	=91
1F	1r	1A	2e]
.	.	.	2d
1E	1G	1B	1e
=92	=92	=92	=92
0r	1.B-X	0r	2r
.	.	.	2d
.	.	.	2.g
.	2A	.	.
.	.	.	4f
=93	=93	=93	=93
1r	2G	0r	2e
.	2F	.	2d
1G	1E	.	4d
.	.	.	4c#i
.	.	.	4c#i
.	.	.	4B
=94	=94	=94	=94
1.F	1D	2r	1d
.	.	2A	.
.	1r	2.d	1r
2E	.	.	.
.	.	4c	.
=95	=95	=95	=95
2D	0r	2B	0r
2C	.	2A	.
1BB	.	4A	.
.	.	4G#i	.
.	.	4G#i	.
.	.	4F#i	.
=96	=96	=96	=96
1AA	1.E	1A	1.c
1r	.	1r	.
.	2F	.	2d
=97	=97	=97	=97
0r	2G	0r	2e
.	2A	.	2.f
.	1E	.	.
.	.	.	4e
.	.	.	[2e
=98	=98	=98	=98
1D	1F	1r	2e]
.	.	.	2d
2.C	1E	1G	1e
8BBL	.	.	.
8AAJ	.	.	.
=99	=99	=99	=99
2GG	0r	1.B-X	0r
1G	.	.	.
2F	.	2A	.
=100	=100	=100	=100
2E	1r	2G	0r
1D	.	2F	.
.	1G	1E	.
2C	.	.	.
=101	=101	=101	=101
2D	1.B-X	2D	1d
1GG	.	1d	.
.	.	.	2.g
4AA	2A	[2c	.
4BB	.	.	4f
=102	=102	=102	=102
2C	2G	4c]	2e
.	.	4B	.
2D	2F	4A	2d
.	.	4G	.
1AA	1E	1A	4d
.	.	.	4c#i
.	.	.	4c#i
.	.	.	4B
=103	=103	=103	=103
1D	0D	2r	[0d
.	.	2A	.
1r	.	2B	.
.	.	[2A	.
=104	=104	=104	=104
0D	0r	4A]	0d]
.	.	4G	.
.	.	1F	.
.	.	4E	.
.	.	4D	.
=105	=105	=105	=105
1D	0A	1F	0r
1C	.	[1E	.
=106	=106	=106	=106
1AA	1A	1E]	0r
[1C	1G	1r	.
=107	=107	=107	=107
2C]	2E	1r	0r
4BB	1G	.	.
4AA	.	.	.
2GG	.	[1d	.
[2D	4F	.	.
.	4E	.	.
=108	=108	=108	=108
4D]	2F	1d]	0r
4C	.	.	.
4BB	1A	.	.
4AA	.	.	.
1BB	.	1d	.
.	2G#i	.	.
=109	=109	=109	=109
0AA	0A	0c	0a
=110	=110	=110	=110
0r	0r	1A	1a
.	.	[1c	1g
=111	=111	=111	=111
0r	0r	2c]	2e
.	.	4B	1g
.	.	4A	.
.	.	2G	.
.	.	[2d	4f
.	.	.	4e
=112	=112	=112	=112
0r	0r	4d]	2f
.	.	4c	.
.	.	4B	1a
.	.	4A	.
.	.	1B	.
.	.	.	2g#i
=113	=113	=113	=113
0D	0r	0A	2.a
.	.	.	4g
.	.	.	4f
.	.	.	4e
.	.	.	[2f
=114	=114	=114	=114
1D	0A	0r	2f]
.	.	.	4e
.	.	.	4d
1C	.	.	[1e
=115	=115	=115	=115
1AA	1A	0r	1e]
[1C	1G	.	1r
=116	=116	=116	=116
2C]	2E	1r	0r
4BB	1G	.	.
4AA	.	.	.
2GG	.	[1d	.
[2D	4F	.	.
.	4E	.	.
=117	=117	=117	=117
4D]	2F	1d]	0r
4C	.	.	.
4BB	1A	.	.
4AA	.	.	.
1BB	.	1d	.
.	2G#i	.	.
=118	=118	=118	=118
0AA	2.A	0c	0a
.	8GL	.	.
.	8FJ	.	.
.	2E	.	.
.	[2F	.	.
=119	=119	=119	=119
0r	4F]	1A	1a
.	4E	.	.
.	2F	.	.
.	1C	[1c	1g
=120	=120	=120	=120
0r	2r	2c]	2e
.	1E	4B	1g
.	.	4A	.
.	.	2G	.
.	[2D	[2d	4f
.	.	.	4e
=121	=121	=121	=121
0r	4D]	4d]	2f
.	4E	4c	.
.	2F	4B	1a
.	.	4A	.
.	1E	1B	.
.	.	.	2g#i
=122	=122	=122	=122
0r	1A	1A	1a
.	1r	1r	1r
=	=	=	=
*M3/1	*M3/1	*M3/1	*M3/1
*met(C|3)	*met(C|3)	*met(C|3)	*met(C|3)
0D	0A	0d	0f
1G	1B	1e	1g
=123	=123	=123	=123
1F	1c	1f	1a
0BB-i	0d	0f	0b-i
=124	=124	=124	=124
0F	0c	0f	0a
1G	1B	1d	1g
=	=	=	=
*M2/1	*M2/1	*M2/1	*M2/1
*met(C|)	*met(C|)	*met(C|)	*met(C|)
1D	1A	1d	1f
1G	2r	1B	1d
.	2G	.	.
=125	=125	=125	=125
1.GG	1.B	1.d	1.g
2AA	2A	2c	2f
=126	=126	=126	=126
2C	2G	2c	2e
2D	2F	2A	2d
1AA	1E	1A	1c#i
=127	=127	=127	=127
1D	0D	1A	0d
2r	.	2r	.
2D	.	2D	.
=128	=128	=128	=128
2BB	1r	2G	1r
2C	.	2G	.
1D	1A	1F	1d
=129	=129	=129	=129
1r	2F	1r	2d
.	2G	.	2e
*	*	*	*^
1AA	1A	1E	1c	1c
*	*	*	*v	*v
=130	=130	=130	=130
2FF	1r	2F	1r
2GG	.	2D	.
1AA	1A	1C	1e
=131	=131	=131	=131
1r	2F	1r	2f
.	2G	.	2d
1AA	1A	1E	1c
=132	=132	=132	=132
2FF	1r	2F	1r
2GG	.	2D	.
2AA	1E	2C	2r
2C	.	[2G	2e
=133	=133	=133	=133
2C	2C	4G]	2.g
.	.	4A	.
2BB	2D	2B	.
.	.	.	4g
2AA	2E	2c	2a
4r	2G	2d	2b
4GG	.	.	.
=134	=134	=134	=134
2C	2G	2e	2cc
2D	2F	2A	2.a
2AA	1E	1c	.
.	.	.	8gL
.	.	.	8fJ
[2C	.	.	[2e
=135	=135	=135	=135
2C]	2G	4c	4e]
.	.	4B	4d
2D	2F	4A	1d
.	.	4G	.
1AA	1E	1A	.
.	.	.	2c#i
=136	=136	=136	=136
00Dl	00Dl	00Al	00dl
==	==	==	==
*-	*-	*-	*-
!!!system-decoration: [*]
!!!RDF**kern: i = editorial accidental
!!!RDF**kern: l = terminal long
!!!ENC: Benjamin Ory
!!!END: 2022/2/13
!!!EED: Benjamin Ory
!!!EEV: 2022/02/13
!!!YEC: Copyright 2022 Benjamin Ory, All Rights Reserved
!!!ONB: Translated from MusicXML on 2022/02/13
